(base-plate)
(T22 D=3 CR=0 - ZMIN=-14 - flat end mill)
G90 G94
G17
G21
G28 G91 Z0
G90

(Drill1)
T22
S20750 M3
G17 G90 G94
G54
G0 X78.454 Y40.5
Z15
G0 Z5
Z4
G1 Z-3 F500
G0 Z5
X45.546
Z4
G1 Z-3 F500
G0 Z5
X62 Y69
Z4
G1 Z-3 F500
G0 Z5
Z15
(When using Fusion 360 for Personal Use, the feedrate of)
(rapid moves is reduced to match the feedrate of cutting)
(moves, which can increase machining time. Unrestricted rapid)
(moves are available with a Fusion 360 Subscription.)

(2D Pocket1)
G0 X63.377 Y51.353
G1 Z15 F3100
Z5
Z2.8 F500
X63.34 Y51.34 Z2.653 F1200
X63.242 Y51.3 Z2.543
X63.112 Y51.234 Z2.5
G3 X64.538 Y48.766 Z2.35 I0.713 J-1.234
X63.112 Y51.234 Z2.2 I-0.713 J1.234
X64.538 Y48.766 Z2.05 I0.713 J-1.234
X63.112 Y51.234 Z1.9 I-0.713 J1.234
X64.538 Y48.766 Z1.75 I0.713 J-1.234
X63.112 Y51.234 Z1.6 I-0.713 J1.234
X64.538 Y48.766 Z1.45 I0.713 J-1.234
X63.112 Y51.234 Z1.3 I-0.713 J1.234
X64.538 Y48.766 Z1.15 I0.713 J-1.234
X63.112 Y51.234 Z1 I-0.713 J1.234
X64.538 Y48.766 Z0.85 I0.713 J-1.234
X63.112 Y51.234 Z0.7 I-0.713 J1.234
X64.538 Y48.766 Z0.55 I0.713 J-1.234
X63.112 Y51.234 Z0.4 I-0.713 J1.234
X64.538 Y48.766 Z0.25 I0.713 J-1.234
X63.112 Y51.234 Z0.1 I-0.713 J1.234
X64.538 Y48.766 Z-0.05 I0.713 J-1.234
X63.112 Y51.234 Z-0.2 I-0.713 J1.234
X62.4 Y50 Z-0.25 I0.713 J-1.234
X63.4 Y50 I0.5 J0 F3100
X60.6 Y50 I-1.4 J0
X65.2 Y50 I2.3 J0
X58.8 Y50 I-3.2 J0
X67 Y50 I4.1 J0
X57 Y50 I-5 J0
X68.8 Y50 I5.9 J0
X55.2 Y50 I-6.8 J0
X70.6 Y50 I7.7 J0
X53.4 Y50 I-8.6 J0
X72.4 Y50 I9.5 J0
X51.6 Y50 I-10.4 J0
X74.2 Y50 I11.3 J0
X49.8 Y50 I-12.2 J0
X76 Y50 I13.1 J0
X48 Y50 I-14 J0
X77.8 Y50 I14.9 J0
X46.2 Y50 I-15.8 J0
X79.6 Y50 I16.7 J0
X44.4 Y50 I-17.6 J0
X81.4 Y50 I18.5 J0
X42.6 Y50 I-19.4 J0
X83.2 Y50 I20.3 J0
X40.8 Y50 I-21.2 J0
X85 Y50 I22.1 J0
X39 Y50 I-23 J0
X85 Y50 I23 J0
X83.575 Y51.425 Z-0.273 I-1.425 J0 F1200
G1 X63.825 Z-0.477
G3 X62.4 Y50 Z-0.5 I0 J-1.425
X63.4 Y50 I0.5 J0 F3100
X60.6 Y50 I-1.4 J0
X65.2 Y50 I2.3 J0
X58.8 Y50 I-3.2 J0
X67 Y50 I4.1 J0
X57 Y50 I-5 J0
X68.8 Y50 I5.9 J0
X55.2 Y50 I-6.8 J0
X70.6 Y50 I7.7 J0
X53.4 Y50 I-8.6 J0
X72.4 Y50 I9.5 J0
X51.6 Y50 I-10.4 J0
X74.2 Y50 I11.3 J0
X49.8 Y50 I-12.2 J0
X76 Y50 I13.1 J0
X48 Y50 I-14 J0
X77.8 Y50 I14.9 J0
X46.2 Y50 I-15.8 J0
X79.6 Y50 I16.7 J0
X44.4 Y50 I-17.6 J0
X81.4 Y50 I18.5 J0
X42.6 Y50 I-19.4 J0
X83.2 Y50 I20.3 J0
X40.8 Y50 I-21.2 J0
X85 Y50 I22.1 J0
X39 Y50 I-23 J0
X85 Y50 I23 J0
X83.575 Y51.425 Z-0.523 I-1.425 J0 F1200
G1 X63.825 Z-0.727
G3 X62.4 Y50 Z-0.75 I0 J-1.425
X63.4 Y50 I0.5 J0 F3100
X60.6 Y50 I-1.4 J0
X65.2 Y50 I2.3 J0
X58.8 Y50 I-3.2 J0
X67 Y50 I4.1 J0
X57 Y50 I-5 J0
X68.8 Y50 I5.9 J0
X55.2 Y50 I-6.8 J0
X70.6 Y50 I7.7 J0
X53.4 Y50 I-8.6 J0
X72.4 Y50 I9.5 J0
X51.6 Y50 I-10.4 J0
X74.2 Y50 I11.3 J0
X49.8 Y50 I-12.2 J0
X76 Y50 I13.1 J0
X48 Y50 I-14 J0
X77.8 Y50 I14.9 J0
X46.2 Y50 I-15.8 J0
X79.6 Y50 I16.7 J0
X44.4 Y50 I-17.6 J0
X81.4 Y50 I18.5 J0
X42.6 Y50 I-19.4 J0
X83.2 Y50 I20.3 J0
X40.8 Y50 I-21.2 J0
X85 Y50 I22.1 J0
X39 Y50 I-23 J0
X85 Y50 I23 J0
X83.575 Y51.425 Z-0.773 I-1.425 J0 F1200
G1 X63.825 Z-0.977
G3 X62.4 Y50 Z-1 I0 J-1.425
X63.4 Y50 I0.5 J0 F3100
X60.6 Y50 I-1.4 J0
X65.2 Y50 I2.3 J0
X58.8 Y50 I-3.2 J0
X67 Y50 I4.1 J0
X57 Y50 I-5 J0
X68.8 Y50 I5.9 J0
X55.2 Y50 I-6.8 J0
X70.6 Y50 I7.7 J0
X53.4 Y50 I-8.6 J0
X72.4 Y50 I9.5 J0
X51.6 Y50 I-10.4 J0
X74.2 Y50 I11.3 J0
X49.8 Y50 I-12.2 J0
X76 Y50 I13.1 J0
X48 Y50 I-14 J0
X77.8 Y50 I14.9 J0
X46.2 Y50 I-15.8 J0
X79.6 Y50 I16.7 J0
X44.4 Y50 I-17.6 J0
X81.4 Y50 I18.5 J0
X42.6 Y50 I-19.4 J0
X83.2 Y50 I20.3 J0
X40.8 Y50 I-21.2 J0
X85 Y50 I22.1 J0
X39 Y50 I-23 J0
X85 Y50 I23 J0
G1 X84.995 Y50.057 Z-0.989 F1000
X84.978 Y50.112 Z-0.977
X84.957 Y50.155 Z-0.945
X84.928 Y50.195 Z-0.912
X84.881 Y50.239 Z-0.815
X84.862 Y50.252 Z-0.7
Z15 F3100
(When using Fusion 360 for Personal Use, the feedrate of)
(rapid moves is reduced to match the feedrate of cutting)
(moves, which can increase machining time. Unrestricted rapid)
(moves are available with a Fusion 360 Subscription.)

(2D Contour1)
G0 X19.7 Y105.5
G1 Z15 F3100
Z5
Z1.5 F500
Z-0.2
G19 G2 Y105.2 Z-0.5 J-0.3 K0 F1200
G1 Y104.9
G17 G3 X20 Y104.6 I0.3 J0
G1 X104 F3100
G2 X128.6 Y80 I0 J-24.6
G1 Y20
G2 X104 Y-4.6 I-24.6 J0
G1 X20
G2 X-4.6 Y20 I0 J24.6
G1 Y80
G2 X20 Y104.6 I24.6 J0
X22.1 Y103.2 I0 J-2.275
G3 X24.2 Y101.8 I2.1 J0.875
G1 X104
G2 X125.8 Y80 I0 J-21.8
G1 Y20
G2 X104 Y-1.8 I-21.8 J0
G1 X20
G2 X-1.8 Y20 I0 J21.8
G1 Y80
G2 X20 Y101.8 I21.8 J0
G1 X24.2
G2 X24.425 Y101.65 I0 J-0.244
G3 X24.65 Y101.5 I0.225 J0.094
G1 X104
G2 X125.5 Y80 I0 J-21.5
G1 Y20
G2 X104 Y-1.5 I-21.5 J0
G1 X20
G2 X-1.5 Y20 I0 J21.5
G1 Y80
G2 X20 Y101.5 I21.5 J0
G1 X24.65
G3 X24.95 Y101.8 I0 J0.3 F1000
G1 Y102.1
G19 G3 Y102.4 Z-0.2 J0 K0.3
G1 Z5 F3100
X19.7 Y105.5
Z1 F500
Z-0.7
G2 Y105.2 Z-1 J-0.3 K0 F1200
G1 Y104.9
G17 G3 X20 Y104.6 I0.3 J0
G1 X104 F3100
G2 X128.6 Y80 I0 J-24.6
G1 Y20
G2 X104 Y-4.6 I-24.6 J0
G1 X20
G2 X-4.6 Y20 I0 J24.6
G1 Y80
G2 X20 Y104.6 I24.6 J0
X22.1 Y103.2 I0 J-2.275
G3 X24.2 Y101.8 I2.1 J0.875
G1 X104
G2 X125.8 Y80 I0 J-21.8
G1 Y20
G2 X104 Y-1.8 I-21.8 J0
G1 X20
G2 X-1.8 Y20 I0 J21.8
G1 Y80
G2 X20 Y101.8 I21.8 J0
G1 X24.2
G2 X24.425 Y101.65 I0 J-0.244
G3 X24.65 Y101.5 I0.225 J0.094
G1 X104
G2 X125.5 Y80 I0 J-21.5
G1 Y20
G2 X104 Y-1.5 I-21.5 J0
G1 X20
G2 X-1.5 Y20 I0 J21.5
G1 Y80
G2 X20 Y101.5 I21.5 J0
G1 X24.65
G3 X24.95 Y101.8 I0 J0.3 F1000
G1 Y102.1
G19 G3 Y102.4 Z-0.7 J0 K0.3
G1 Z5 F3100
X19.7 Y105.5
Z0.5 F500
Z-1.2
G2 Y105.2 Z-1.5 J-0.3 K0 F1200
G1 Y104.9
G17 G3 X20 Y104.6 I0.3 J0
G1 X104 F3100
G2 X128.6 Y80 I0 J-24.6
G1 Y20
G2 X104 Y-4.6 I-24.6 J0
G1 X20
G2 X-4.6 Y20 I0 J24.6
G1 Y80
G2 X20 Y104.6 I24.6 J0
X22.1 Y103.2 I0 J-2.275
G3 X24.2 Y101.8 I2.1 J0.875
G1 X104
G2 X125.8 Y80 I0 J-21.8
G1 Y20
G2 X104 Y-1.8 I-21.8 J0
G1 X20
G2 X-1.8 Y20 I0 J21.8
G1 Y80
G2 X20 Y101.8 I21.8 J0
G1 X24.2
G2 X24.425 Y101.65 I0 J-0.244
G3 X24.65 Y101.5 I0.225 J0.094
G1 X104
G2 X125.5 Y80 I0 J-21.5
G1 Y20
G2 X104 Y-1.5 I-21.5 J0
G1 X20
G2 X-1.5 Y20 I0 J21.5
G1 Y80
G2 X20 Y101.5 I21.5 J0
G1 X24.65
G3 X24.95 Y101.8 I0 J0.3 F1000
G1 Y102.1
G19 G3 Y102.4 Z-1.2 J0 K0.3
G1 Z5 F3100
X19.7 Y105.5
Z0 F500
Z-1.7
G2 Y105.2 Z-2 J-0.3 K0 F1200
G1 Y104.9
G17 G3 X20 Y104.6 I0.3 J0
G1 X104 F3100
G2 X128.6 Y80 I0 J-24.6
G1 Y20
G2 X104 Y-4.6 I-24.6 J0
G1 X20
G2 X-4.6 Y20 I0 J24.6
G1 Y80
G2 X20 Y104.6 I24.6 J0
X22.1 Y103.2 I0 J-2.275
G3 X24.2 Y101.8 I2.1 J0.875
G1 X104
G2 X125.8 Y80 I0 J-21.8
G1 Y20
G2 X104 Y-1.8 I-21.8 J0
G1 X20
G2 X-1.8 Y20 I0 J21.8
G1 Y80
G2 X20 Y101.8 I21.8 J0
G1 X24.2
G2 X24.425 Y101.65 I0 J-0.244
G3 X24.65 Y101.5 I0.225 J0.094
G1 X104
G2 X125.5 Y80 I0 J-21.5
G1 Y20
G2 X104 Y-1.5 I-21.5 J0
G1 X20
G2 X-1.5 Y20 I0 J21.5
G1 Y80
G2 X20 Y101.5 I21.5 J0
G1 X24.65
G3 X24.95 Y101.8 I0 J0.3 F1000
G1 Y102.1
G19 G3 Y102.4 Z-1.7 J0 K0.3
G1 Z5 F3100
X19.7 Y105.5
Z-0.5 F500
Z-2.2
G2 Y105.2 Z-2.5 J-0.3 K0 F1200
G1 Y104.9
G17 G3 X20 Y104.6 I0.3 J0
G1 X104 F3100
G2 X128.6 Y80 I0 J-24.6
G1 Y20
G2 X104 Y-4.6 I-24.6 J0
G1 X20
G2 X-4.6 Y20 I0 J24.6
G1 Y80
G2 X20 Y104.6 I24.6 J0
X22.1 Y103.2 I0 J-2.275
G3 X24.2 Y101.8 I2.1 J0.875
G1 X104
G2 X125.8 Y80 I0 J-21.8
G1 Y20
G2 X104 Y-1.8 I-21.8 J0
G1 X20
G2 X-1.8 Y20 I0 J21.8
G1 Y80
G2 X20 Y101.8 I21.8 J0
G1 X24.2
G2 X24.425 Y101.65 I0 J-0.244
G3 X24.65 Y101.5 I0.225 J0.094
G1 X104
G2 X125.5 Y80 I0 J-21.5
G1 Y20
G2 X104 Y-1.5 I-21.5 J0
G1 X20
G2 X-1.5 Y20 I0 J21.5
G1 Y80
G2 X20 Y101.5 I21.5 J0
G1 X24.65
G3 X24.95 Y101.8 I0 J0.3 F1000
G1 Y102.1
G19 G3 Y102.4 Z-2.2 J0 K0.3
G1 Z5 F3100
X19.7 Y105.5
Z-1 F500
Z-2.7
G2 Y105.2 Z-3 J-0.3 K0 F1200
G1 Y104.9
G17 G3 X20 Y104.6 I0.3 J0
G1 X104 F3100
G2 X128.6 Y80 I0 J-24.6
G1 Y20
G2 X104 Y-4.6 I-24.6 J0
G1 X20
G2 X-4.6 Y20 I0 J24.6
G1 Y80
G2 X20 Y104.6 I24.6 J0
X22.1 Y103.2 I0 J-2.275
G3 X24.2 Y101.8 I2.1 J0.875
G1 X104
G2 X125.8 Y80 I0 J-21.8
G1 Y20
G2 X104 Y-1.8 I-21.8 J0
G1 X20
G2 X-1.8 Y20 I0 J21.8
G1 Y80
G2 X20 Y101.8 I21.8 J0
G1 X24.2
G2 X24.425 Y101.65 I0 J-0.244
G3 X24.65 Y101.5 I0.225 J0.094
G1 X104
G2 X125.5 Y80 I0 J-21.5
G1 Y20
G2 X104 Y-1.5 I-21.5 J0
G1 X20
G2 X-1.5 Y20 I0 J21.5
G1 Y80
G2 X20 Y101.5 I21.5 J0
G1 X24.65
G3 X24.95 Y101.8 I0 J0.3 F1000
G1 Y102.1
G19 G3 Y102.4 Z-2.7 J0 K0.3
G1 Z5 F3100
X19.7 Y105.5
Z-1.5 F500
Z-3.2
G2 Y105.2 Z-3.5 J-0.3 K0 F1200
G1 Y104.9
G17 G3 X20 Y104.6 I0.3 J0
G1 X104 F3100
G2 X128.6 Y80 I0 J-24.6
G1 Y20
G2 X104 Y-4.6 I-24.6 J0
G1 X20
G2 X-4.6 Y20 I0 J24.6
G1 Y80
G2 X20 Y104.6 I24.6 J0
X22.1 Y103.2 I0 J-2.275
G3 X24.2 Y101.8 I2.1 J0.875
G1 X104
G2 X125.8 Y80 I0 J-21.8
G1 Y20
G2 X104 Y-1.8 I-21.8 J0
G1 X20
G2 X-1.8 Y20 I0 J21.8
G1 Y80
G2 X20 Y101.8 I21.8 J0
G1 X24.2
G2 X24.425 Y101.65 I0 J-0.244
G3 X24.65 Y101.5 I0.225 J0.094
G1 X104
G2 X125.5 Y80 I0 J-21.5
G1 Y20
G2 X104 Y-1.5 I-21.5 J0
G1 X20
G2 X-1.5 Y20 I0 J21.5
G1 Y80
G2 X20 Y101.5 I21.5 J0
G1 X24.65
G3 X24.95 Y101.8 I0 J0.3 F1000
G1 Y102.1
G19 G3 Y102.4 Z-3.2 J0 K0.3
G1 Z5 F3100
X19.7 Y105.5
Z-2 F500
Z-3.7
G2 Y105.2 Z-4 J-0.3 K0 F1200
G1 Y104.9
G17 G3 X20 Y104.6 I0.3 J0
G1 X104 F3100
G2 X128.6 Y80 I0 J-24.6
G1 Y20
G2 X104 Y-4.6 I-24.6 J0
G1 X20
G2 X-4.6 Y20 I0 J24.6
G1 Y80
G2 X20 Y104.6 I24.6 J0
X22.1 Y103.2 I0 J-2.275
G3 X24.2 Y101.8 I2.1 J0.875
G1 X104
G2 X125.8 Y80 I0 J-21.8
G1 Y20
G2 X104 Y-1.8 I-21.8 J0
G1 X20
G2 X-1.8 Y20 I0 J21.8
G1 Y80
G2 X20 Y101.8 I21.8 J0
G1 X24.2
G2 X24.425 Y101.65 I0 J-0.244
G3 X24.65 Y101.5 I0.225 J0.094
G1 X104
G2 X125.5 Y80 I0 J-21.5
G1 Y20
G2 X104 Y-1.5 I-21.5 J0
G1 X20
G2 X-1.5 Y20 I0 J21.5
G1 Y80
G2 X20 Y101.5 I21.5 J0
G1 X24.65
G3 X24.95 Y101.8 I0 J0.3 F1000
G1 Y102.1
G19 G3 Y102.4 Z-3.7 J0 K0.3
G1 Z5 F3100
X19.7 Y105.5
Z-2.5 F500
Z-4.2
G2 Y105.2 Z-4.5 J-0.3 K0 F1200
G1 Y104.9
G17 G3 X20 Y104.6 I0.3 J0
G1 X104 F3100
G2 X128.6 Y80 I0 J-24.6
G1 Y20
G2 X104 Y-4.6 I-24.6 J0
G1 X20
G2 X-4.6 Y20 I0 J24.6
G1 Y80
G2 X20 Y104.6 I24.6 J0
X22.1 Y103.2 I0 J-2.275
G3 X24.2 Y101.8 I2.1 J0.875
G1 X104
G2 X125.8 Y80 I0 J-21.8
G1 Y20
G2 X104 Y-1.8 I-21.8 J0
G1 X20
G2 X-1.8 Y20 I0 J21.8
G1 Y80
G2 X20 Y101.8 I21.8 J0
G1 X24.2
G2 X24.425 Y101.65 I0 J-0.244
G3 X24.65 Y101.5 I0.225 J0.094
G1 X104
G2 X125.5 Y80 I0 J-21.5
G1 Y20
G2 X104 Y-1.5 I-21.5 J0
G1 X20
G2 X-1.5 Y20 I0 J21.5
G1 Y80
G2 X20 Y101.5 I21.5 J0
G1 X24.65
G3 X24.95 Y101.8 I0 J0.3 F1000
G1 Y102.1
G19 G3 Y102.4 Z-4.2 J0 K0.3
G1 Z5 F3100
X19.7 Y105.5
Z-3 F500
Z-4.7
G2 Y105.2 Z-5 J-0.3 K0 F1200
G1 Y104.9
G17 G3 X20 Y104.6 I0.3 J0
G1 X104 F3100
G2 X128.6 Y80 I0 J-24.6
G1 Y20
G2 X104 Y-4.6 I-24.6 J0
G1 X20
G2 X-4.6 Y20 I0 J24.6
G1 Y80
G2 X20 Y104.6 I24.6 J0
X22.1 Y103.2 I0 J-2.275
G3 X24.2 Y101.8 I2.1 J0.875
G1 X104
G2 X125.8 Y80 I0 J-21.8
G1 Y20
G2 X104 Y-1.8 I-21.8 J0
G1 X20
G2 X-1.8 Y20 I0 J21.8
G1 Y80
G2 X20 Y101.8 I21.8 J0
G1 X24.2
G2 X24.425 Y101.65 I0 J-0.244
G3 X24.65 Y101.5 I0.225 J0.094
G1 X104
G2 X125.5 Y80 I0 J-21.5
G1 Y20
G2 X104 Y-1.5 I-21.5 J0
G1 X20
G2 X-1.5 Y20 I0 J21.5
G1 Y80
G2 X20 Y101.5 I21.5 J0
G1 X24.65
G3 X24.95 Y101.8 I0 J0.3 F1000
G1 Y102.1
G19 G3 Y102.4 Z-4.7 J0 K0.3
G1 Z5 F3100
X19.7 Y105.5
Z-3.5 F500
Z-5.2
G2 Y105.2 Z-5.5 J-0.3 K0 F1200
G1 Y104.9
G17 G3 X20 Y104.6 I0.3 J0
G1 X104 F3100
G2 X128.6 Y80 I0 J-24.6
G1 Y20
G2 X104 Y-4.6 I-24.6 J0
G1 X20
G2 X-4.6 Y20 I0 J24.6
G1 Y80
G2 X20 Y104.6 I24.6 J0
X22.1 Y103.2 I0 J-2.275
G3 X24.2 Y101.8 I2.1 J0.875
G1 X104
G2 X125.8 Y80 I0 J-21.8
G1 Y20
G2 X104 Y-1.8 I-21.8 J0
G1 X20
G2 X-1.8 Y20 I0 J21.8
G1 Y80
G2 X20 Y101.8 I21.8 J0
G1 X24.2
G2 X24.425 Y101.65 I0 J-0.244
G3 X24.65 Y101.5 I0.225 J0.094
G1 X104
G2 X125.5 Y80 I0 J-21.5
G1 Y20
G2 X104 Y-1.5 I-21.5 J0
G1 X20
G2 X-1.5 Y20 I0 J21.5
G1 Y80
G2 X20 Y101.5 I21.5 J0
G1 X24.65
G3 X24.95 Y101.8 I0 J0.3 F1000
G1 Y102.1
G19 G3 Y102.4 Z-5.2 J0 K0.3
G1 Z5 F3100
X19.7 Y105.5
Z-4 F500
Z-5.7
G2 Y105.2 Z-6 J-0.3 K0 F1200
G1 Y104.9
G17 G3 X20 Y104.6 I0.3 J0
G1 X104 F3100
G2 X128.6 Y80 I0 J-24.6
G1 Y20
G2 X104 Y-4.6 I-24.6 J0
G1 X20
G2 X-4.6 Y20 I0 J24.6
G1 Y80
G2 X20 Y104.6 I24.6 J0
X22.1 Y103.2 I0 J-2.275
G3 X24.2 Y101.8 I2.1 J0.875
G1 X104
G2 X125.8 Y80 I0 J-21.8
G1 Y20
G2 X104 Y-1.8 I-21.8 J0
G1 X20
G2 X-1.8 Y20 I0 J21.8
G1 Y80
G2 X20 Y101.8 I21.8 J0
G1 X24.2
G2 X24.425 Y101.65 I0 J-0.244
G3 X24.65 Y101.5 I0.225 J0.094
G1 X104
G2 X125.5 Y80 I0 J-21.5
G1 Y20
G2 X104 Y-1.5 I-21.5 J0
G1 X20
G2 X-1.5 Y20 I0 J21.5
G1 Y80
G2 X20 Y101.5 I21.5 J0
G1 X24.65
G3 X24.95 Y101.8 I0 J0.3 F1000
G1 Y102.1
G19 G3 Y102.4 Z-5.7 J0 K0.3
G1 Z5 F3100
X19.7 Y105.5
Z-4.5 F500
Z-6.2
G2 Y105.2 Z-6.5 J-0.3 K0 F1200
G1 Y104.9
G17 G3 X20 Y104.6 I0.3 J0
G1 X104 F3100
G2 X128.6 Y80 I0 J-24.6
G1 Y20
G2 X104 Y-4.6 I-24.6 J0
G1 X20
G2 X-4.6 Y20 I0 J24.6
G1 Y80
G2 X20 Y104.6 I24.6 J0
X22.1 Y103.2 I0 J-2.275
G3 X24.2 Y101.8 I2.1 J0.875
G1 X104
G2 X125.8 Y80 I0 J-21.8
G1 Y20
G2 X104 Y-1.8 I-21.8 J0
G1 X20
G2 X-1.8 Y20 I0 J21.8
G1 Y80
G2 X20 Y101.8 I21.8 J0
G1 X24.2
G2 X24.425 Y101.65 I0 J-0.244
G3 X24.65 Y101.5 I0.225 J0.094
G1 X104
G2 X125.5 Y80 I0 J-21.5
G1 Y20
G2 X104 Y-1.5 I-21.5 J0
G1 X20
G2 X-1.5 Y20 I0 J21.5
G1 Y80
G2 X20 Y101.5 I21.5 J0
G1 X24.65
G3 X24.95 Y101.8 I0 J0.3 F1000
G1 Y102.1
G19 G3 Y102.4 Z-6.2 J0 K0.3
G1 Z5 F3100
X19.7 Y105.5
Z-5 F500
Z-6.7
G2 Y105.2 Z-7 J-0.3 K0 F1200
G1 Y104.9
G17 G3 X20 Y104.6 I0.3 J0
G1 X104 F3100
G2 X128.6 Y80 I0 J-24.6
G1 Y20
G2 X104 Y-4.6 I-24.6 J0
G1 X20
G2 X-4.6 Y20 I0 J24.6
G1 Y80
G2 X20 Y104.6 I24.6 J0
X22.1 Y103.2 I0 J-2.275
G3 X24.2 Y101.8 I2.1 J0.875
G1 X104
G2 X125.8 Y80 I0 J-21.8
G1 Y20
G2 X104 Y-1.8 I-21.8 J0
G1 X20
G2 X-1.8 Y20 I0 J21.8
G1 Y80
G2 X20 Y101.8 I21.8 J0
G1 X24.2
G2 X24.425 Y101.65 I0 J-0.244
G3 X24.65 Y101.5 I0.225 J0.094
G1 X104
G2 X125.5 Y80 I0 J-21.5
G1 Y20
G2 X104 Y-1.5 I-21.5 J0
G1 X20
G2 X-1.5 Y20 I0 J21.5
G1 Y80
G2 X20 Y101.5 I21.5 J0
G1 X24.65
G3 X24.95 Y101.8 I0 J0.3 F1000
G1 Y102.1
G19 G3 Y102.4 Z-6.7 J0 K0.3
G1 Z5 F3100
X19.7 Y105.5
Z-5.5 F500
Z-7.2
G2 Y105.2 Z-7.5 J-0.3 K0 F1200
G1 Y104.9
G17 G3 X20 Y104.6 I0.3 J0
G1 X104 F3100
G2 X128.6 Y80 I0 J-24.6
G1 Y20
G2 X104 Y-4.6 I-24.6 J0
G1 X20
G2 X-4.6 Y20 I0 J24.6
G1 Y80
G2 X20 Y104.6 I24.6 J0
X22.1 Y103.2 I0 J-2.275
G3 X24.2 Y101.8 I2.1 J0.875
G1 X104
G2 X125.8 Y80 I0 J-21.8
G1 Y20
G2 X104 Y-1.8 I-21.8 J0
G1 X20
G2 X-1.8 Y20 I0 J21.8
G1 Y80
G2 X20 Y101.8 I21.8 J0
G1 X24.2
G2 X24.425 Y101.65 I0 J-0.244
G3 X24.65 Y101.5 I0.225 J0.094
G1 X104
G2 X125.5 Y80 I0 J-21.5
G1 Y20
G2 X104 Y-1.5 I-21.5 J0
G1 X20
G2 X-1.5 Y20 I0 J21.5
G1 Y80
G2 X20 Y101.5 I21.5 J0
G1 X24.65
G3 X24.95 Y101.8 I0 J0.3 F1000
G1 Y102.1
G19 G3 Y102.4 Z-7.2 J0 K0.3
G1 Z5 F3100
X19.7 Y105.5
Z-6 F500
Z-7.7
G2 Y105.2 Z-8 J-0.3 K0 F1200
G1 Y104.9
G17 G3 X20 Y104.6 I0.3 J0
G1 X104 F3100
G2 X128.6 Y80 I0 J-24.6
G1 Y20
G2 X104 Y-4.6 I-24.6 J0
G1 X20
G2 X-4.6 Y20 I0 J24.6
G1 Y80
G2 X20 Y104.6 I24.6 J0
X22.1 Y103.2 I0 J-2.275
G3 X24.2 Y101.8 I2.1 J0.875
G1 X104
G2 X125.8 Y80 I0 J-21.8
G1 Y20
G2 X104 Y-1.8 I-21.8 J0
G1 X20
G2 X-1.8 Y20 I0 J21.8
G1 Y80
G2 X20 Y101.8 I21.8 J0
G1 X24.2
G2 X24.425 Y101.65 I0 J-0.244
G3 X24.65 Y101.5 I0.225 J0.094
G1 X104
G2 X125.5 Y80 I0 J-21.5
G1 Y20
G2 X104 Y-1.5 I-21.5 J0
G1 X20
G2 X-1.5 Y20 I0 J21.5
G1 Y80
G2 X20 Y101.5 I21.5 J0
G1 X24.65
G3 X24.95 Y101.8 I0 J0.3 F1000
G1 Y102.1
G19 G3 Y102.4 Z-7.7 J0 K0.3
G1 Z5 F3100
X19.7 Y105.5
Z-6.5 F500
Z-8.2
G2 Y105.2 Z-8.5 J-0.3 K0 F1200
G1 Y104.9
G17 G3 X20 Y104.6 I0.3 J0
G1 X104 F3100
G2 X128.6 Y80 I0 J-24.6
G1 Y20
G2 X104 Y-4.6 I-24.6 J0
G1 X20
G2 X-4.6 Y20 I0 J24.6
G1 Y80
G2 X20 Y104.6 I24.6 J0
X22.1 Y103.2 I0 J-2.275
G3 X24.2 Y101.8 I2.1 J0.875
G1 X104
G2 X125.8 Y80 I0 J-21.8
G1 Y20
G2 X104 Y-1.8 I-21.8 J0
G1 X20
G2 X-1.8 Y20 I0 J21.8
G1 Y80
G2 X20 Y101.8 I21.8 J0
G1 X24.2
G2 X24.425 Y101.65 I0 J-0.244
G3 X24.65 Y101.5 I0.225 J0.094
G1 X104
G2 X125.5 Y80 I0 J-21.5
G1 Y20
G2 X104 Y-1.5 I-21.5 J0
G1 X20
G2 X-1.5 Y20 I0 J21.5
G1 Y80
G2 X20 Y101.5 I21.5 J0
G1 X24.65
G3 X24.95 Y101.8 I0 J0.3 F1000
G1 Y102.1
G19 G3 Y102.4 Z-8.2 J0 K0.3
G1 Z5 F3100
X19.7 Y105.5
Z-7 F500
Z-8.7
G2 Y105.2 Z-9 J-0.3 K0 F1200
G1 Y104.9
G17 G3 X20 Y104.6 I0.3 J0
G1 X104 F3100
G2 X128.6 Y80 I0 J-24.6
G1 Y20
G2 X104 Y-4.6 I-24.6 J0
G1 X20
G2 X-4.6 Y20 I0 J24.6
G1 Y80
G2 X20 Y104.6 I24.6 J0
X22.1 Y103.2 I0 J-2.275
G3 X24.2 Y101.8 I2.1 J0.875
G1 X104
G2 X125.8 Y80 I0 J-21.8
G1 Y20
G2 X104 Y-1.8 I-21.8 J0
G1 X20
G2 X-1.8 Y20 I0 J21.8
G1 Y80
G2 X20 Y101.8 I21.8 J0
G1 X24.2
G2 X24.425 Y101.65 I0 J-0.244
G3 X24.65 Y101.5 I0.225 J0.094
G1 X104
G2 X125.5 Y80 I0 J-21.5
G1 Y20
G2 X104 Y-1.5 I-21.5 J0
G1 X20
G2 X-1.5 Y20 I0 J21.5
G1 Y80
G2 X20 Y101.5 I21.5 J0
G1 X24.65
G3 X24.95 Y101.8 I0 J0.3 F1000
G1 Y102.1
G19 G3 Y102.4 Z-8.7 J0 K0.3
G1 Z5 F3100
X19.7 Y105.5
Z-7.5 F500
Z-9.2
G2 Y105.2 Z-9.5 J-0.3 K0 F1200
G1 Y104.9
G17 G3 X20 Y104.6 I0.3 J0
G1 X104 F3100
G2 X128.6 Y80 I0 J-24.6
G1 Y20
G2 X104 Y-4.6 I-24.6 J0
G1 X20
G2 X-4.6 Y20 I0 J24.6
G1 Y80
G2 X20 Y104.6 I24.6 J0
X22.1 Y103.2 I0 J-2.275
G3 X24.2 Y101.8 I2.1 J0.875
G1 X104
G2 X125.8 Y80 I0 J-21.8
G1 Y20
G2 X104 Y-1.8 I-21.8 J0
G1 X20
G2 X-1.8 Y20 I0 J21.8
G1 Y80
G2 X20 Y101.8 I21.8 J0
G1 X24.2
G2 X24.425 Y101.65 I0 J-0.244
G3 X24.65 Y101.5 I0.225 J0.094
G1 X104
G2 X125.5 Y80 I0 J-21.5
G1 Y20
G2 X104 Y-1.5 I-21.5 J0
G1 X20
G2 X-1.5 Y20 I0 J21.5
G1 Y80
G2 X20 Y101.5 I21.5 J0
G1 X24.65
G3 X24.95 Y101.8 I0 J0.3 F1000
G1 Y102.1
G19 G3 Y102.4 Z-9.2 J0 K0.3
G1 Z5 F3100
X19.7 Y105.5
Z-8 F500
Z-9.7
G2 Y105.2 Z-10 J-0.3 K0 F1200
G1 Y104.9
G17 G3 X20 Y104.6 I0.3 J0
G1 X104 F3100
G2 X128.6 Y80 I0 J-24.6
G1 Y20
G2 X104 Y-4.6 I-24.6 J0
G1 X20
G2 X-4.6 Y20 I0 J24.6
G1 Y80
G2 X20 Y104.6 I24.6 J0
X22.1 Y103.2 I0 J-2.275
G3 X24.2 Y101.8 I2.1 J0.875
G1 X104
G2 X125.8 Y80 I0 J-21.8
G1 Y20
G2 X104 Y-1.8 I-21.8 J0
G1 X20
G2 X-1.8 Y20 I0 J21.8
G1 Y80
G2 X20 Y101.8 I21.8 J0
G1 X24.2
G2 X24.425 Y101.65 I0 J-0.244
G3 X24.65 Y101.5 I0.225 J0.094
G1 X104
G2 X125.5 Y80 I0 J-21.5
G1 Y20
G2 X104 Y-1.5 I-21.5 J0
G1 X20
G2 X-1.5 Y20 I0 J21.5
G1 Y80
G2 X20 Y101.5 I21.5 J0
G1 X24.65
G3 X24.95 Y101.8 I0 J0.3 F1000
G1 Y102.1
G19 G3 Y102.4 Z-9.7 J0 K0.3
G1 Z5 F3100
X19.7 Y105.5
Z-8.5 F500
Z-10.2
G2 Y105.2 Z-10.5 J-0.3 K0 F1200
G1 Y104.9
G17 G3 X20 Y104.6 I0.3 J0
G1 X104 F3100
G2 X128.6 Y80 I0 J-24.6
G1 Y20
G2 X104 Y-4.6 I-24.6 J0
G1 X20
G2 X-4.6 Y20 I0 J24.6
G1 Y80
G2 X20 Y104.6 I24.6 J0
X22.1 Y103.2 I0 J-2.275
G3 X24.2 Y101.8 I2.1 J0.875
G1 X104
G2 X125.8 Y80 I0 J-21.8
G1 Y20
G2 X104 Y-1.8 I-21.8 J0
G1 X20
G2 X-1.8 Y20 I0 J21.8
G1 Y80
G2 X20 Y101.8 I21.8 J0
G1 X24.2
G2 X24.425 Y101.65 I0 J-0.244
G3 X24.65 Y101.5 I0.225 J0.094
G1 X104
G2 X125.5 Y80 I0 J-21.5
G1 Y20
G2 X104 Y-1.5 I-21.5 J0
G1 X20
G2 X-1.5 Y20 I0 J21.5
G1 Y80
G2 X20 Y101.5 I21.5 J0
G1 X24.65
G3 X24.95 Y101.8 I0 J0.3 F1000
G1 Y102.1
G19 G3 Y102.4 Z-10.2 J0 K0.3
G1 Z5 F3100
X19.7 Y105.5
Z-9 F500
Z-10.7
G2 Y105.2 Z-11 J-0.3 K0 F1200
G1 Y104.9
G17 G3 X20 Y104.6 I0.3 J0
G1 X104 F3100
G2 X128.6 Y80 I0 J-24.6
G1 Y20
G2 X104 Y-4.6 I-24.6 J0
G1 X20
G2 X-4.6 Y20 I0 J24.6
G1 Y80
G2 X20 Y104.6 I24.6 J0
X22.1 Y103.2 I0 J-2.275
G3 X24.2 Y101.8 I2.1 J0.875
G1 X104
G2 X125.8 Y80 I0 J-21.8
G1 Y20
G2 X104 Y-1.8 I-21.8 J0
G1 X20
G2 X-1.8 Y20 I0 J21.8
G1 Y80
G2 X20 Y101.8 I21.8 J0
G1 X24.2
G2 X24.425 Y101.65 I0 J-0.244
G3 X24.65 Y101.5 I0.225 J0.094
G1 X104
G2 X125.5 Y80 I0 J-21.5
G1 Y20
G2 X104 Y-1.5 I-21.5 J0
G1 X20
G2 X-1.5 Y20 I0 J21.5
G1 Y80
G2 X20 Y101.5 I21.5 J0
G1 X24.65
G3 X24.95 Y101.8 I0 J0.3 F1000
G1 Y102.1
G19 G3 Y102.4 Z-10.7 J0 K0.3
G1 Z5 F3100
X19.7 Y105.5
Z-9.5 F500
Z-11.2
G2 Y105.2 Z-11.5 J-0.3 K0 F1200
G1 Y104.9
G17 G3 X20 Y104.6 I0.3 J0
G1 X104 F3100
G2 X128.6 Y80 I0 J-24.6
G1 Y20
G2 X104 Y-4.6 I-24.6 J0
G1 X20
G2 X-4.6 Y20 I0 J24.6
G1 Y80
G2 X20 Y104.6 I24.6 J0
X22.1 Y103.2 I0 J-2.275
G3 X24.2 Y101.8 I2.1 J0.875
G1 X104
G2 X125.8 Y80 I0 J-21.8
G1 Y20
G2 X104 Y-1.8 I-21.8 J0
G1 X20
G2 X-1.8 Y20 I0 J21.8
G1 Y80
G2 X20 Y101.8 I21.8 J0
G1 X24.2
G2 X24.425 Y101.65 I0 J-0.244
G3 X24.65 Y101.5 I0.225 J0.094
G1 X104
G2 X125.5 Y80 I0 J-21.5
G1 Y20
G2 X104 Y-1.5 I-21.5 J0
G1 X20
G2 X-1.5 Y20 I0 J21.5
G1 Y80
G2 X20 Y101.5 I21.5 J0
G1 X24.65
G3 X24.95 Y101.8 I0 J0.3 F1000
G1 Y102.1
G19 G3 Y102.4 Z-11.2 J0 K0.3
G1 Z5 F3100
X19.7 Y105.5
Z-10 F500
Z-11.7
G2 Y105.2 Z-12 J-0.3 K0 F1200
G1 Y104.9
G17 G3 X20 Y104.6 I0.3 J0
G1 X104 F3100
G2 X128.6 Y80 I0 J-24.6
G1 Y20
G2 X104 Y-4.6 I-24.6 J0
G1 X20
G2 X-4.6 Y20 I0 J24.6
G1 Y80
G2 X20 Y104.6 I24.6 J0
X22.1 Y103.2 I0 J-2.275
G3 X24.2 Y101.8 I2.1 J0.875
G1 X104
G2 X125.8 Y80 I0 J-21.8
G1 Y20
G2 X104 Y-1.8 I-21.8 J0
G1 X20
G2 X-1.8 Y20 I0 J21.8
G1 Y80
G2 X20 Y101.8 I21.8 J0
G1 X24.2
G2 X24.425 Y101.65 I0 J-0.244
G3 X24.65 Y101.5 I0.225 J0.094
G1 X104
G2 X125.5 Y80 I0 J-21.5
G1 Y20
G2 X104 Y-1.5 I-21.5 J0
G1 X20
G2 X-1.5 Y20 I0 J21.5
G1 Y80
G2 X20 Y101.5 I21.5 J0
G1 X24.65
G3 X24.95 Y101.8 I0 J0.3 F1000
G1 Y102.1
G19 G3 Y102.4 Z-11.7 J0 K0.3
G1 Z5 F3100
X19.7 Y105.5
Z-10.5 F500
Z-12.2
G2 Y105.2 Z-12.5 J-0.3 K0 F1200
G1 Y104.9
G17 G3 X20 Y104.6 I0.3 J0
G1 X104 F3100
G2 X128.6 Y80 I0 J-24.6
G1 Y20
G2 X104 Y-4.6 I-24.6 J0
G1 X20
G2 X-4.6 Y20 I0 J24.6
G1 Y80
G2 X20 Y104.6 I24.6 J0
X22.1 Y103.2 I0 J-2.275
G3 X24.2 Y101.8 I2.1 J0.875
G1 X104
G2 X125.8 Y80 I0 J-21.8
G1 Y20
G2 X104 Y-1.8 I-21.8 J0
G1 X20
G2 X-1.8 Y20 I0 J21.8
G1 Y80
G2 X20 Y101.8 I21.8 J0
G1 X24.2
G2 X24.425 Y101.65 I0 J-0.244
G3 X24.65 Y101.5 I0.225 J0.094
G1 X104
G2 X125.5 Y80 I0 J-21.5
G1 Y20
G2 X104 Y-1.5 I-21.5 J0
G1 X20
G2 X-1.5 Y20 I0 J21.5
G1 Y80
G2 X20 Y101.5 I21.5 J0
G1 X24.65
G3 X24.95 Y101.8 I0 J0.3 F1000
G1 Y102.1
G19 G3 Y102.4 Z-12.2 J0 K0.3
G1 Z5 F3100
X19.7 Y105.5
Z-11 F500
Z-12.7
G2 Y105.2 Z-13 J-0.3 K0 F1200
G1 Y104.9
G17 G3 X20 Y104.6 I0.3 J0
G1 X104 F3100
G2 X128.6 Y80 I0 J-24.6
G1 Y20
G2 X104 Y-4.6 I-24.6 J0
G1 X20
G2 X-4.6 Y20 I0 J24.6
G1 Y80
G2 X20 Y104.6 I24.6 J0
X22.1 Y103.2 I0 J-2.275
G3 X24.2 Y101.8 I2.1 J0.875
G1 X104
G2 X125.8 Y80 I0 J-21.8
G1 Y20
G2 X104 Y-1.8 I-21.8 J0
G1 X20
G2 X-1.8 Y20 I0 J21.8
G1 Y80
G2 X20 Y101.8 I21.8 J0
G1 X24.2
G2 X24.425 Y101.65 I0 J-0.244
G3 X24.65 Y101.5 I0.225 J0.094
G1 X104
G2 X125.5 Y80 I0 J-21.5
G1 Y20
G2 X104 Y-1.5 I-21.5 J0
G1 X20
G2 X-1.5 Y20 I0 J21.5
G1 Y80
G2 X20 Y101.5 I21.5 J0
G1 X24.65
G3 X24.95 Y101.8 I0 J0.3 F1000
G1 Y102.1
G19 G3 Y102.4 Z-12.7 J0 K0.3
G1 Z5 F3100
X19.7 Y105.5
Z-11.5 F500
Z-13.2
G2 Y105.2 Z-13.5 J-0.3 K0 F1200
G1 Y104.9
G17 G3 X20 Y104.6 I0.3 J0
G1 X104 F3100
G2 X128.6 Y80 I0 J-24.6
G1 Y20
G2 X104 Y-4.6 I-24.6 J0
G1 X20
G2 X-4.6 Y20 I0 J24.6
G1 Y80
G2 X20 Y104.6 I24.6 J0
X22.1 Y103.2 I0 J-2.275
G3 X24.2 Y101.8 I2.1 J0.875
G1 X104
G2 X125.8 Y80 I0 J-21.8
G1 Y20
G2 X104 Y-1.8 I-21.8 J0
G1 X20
G2 X-1.8 Y20 I0 J21.8
G1 Y80
G2 X20 Y101.8 I21.8 J0
G1 X24.2
G2 X24.425 Y101.65 I0 J-0.244
G3 X24.65 Y101.5 I0.225 J0.094
G1 X104
G2 X125.5 Y80 I0 J-21.5
G1 Y20
G2 X104 Y-1.5 I-21.5 J0
G1 X20
G2 X-1.5 Y20 I0 J21.5
G1 Y80
G2 X20 Y101.5 I21.5 J0
G1 X24.65
G3 X24.95 Y101.8 I0 J0.3 F1000
G1 Y102.1
G19 G3 Y102.4 Z-13.2 J0 K0.3
G1 Z5 F3100
X19.7 Y105.5
Z-12 F500
Z-13.7
G2 Y105.2 Z-14 J-0.3 K0 F1200
G1 Y104.9
G17 G3 X20 Y104.6 I0.3 J0
G1 X104 F3100
G2 X128.6 Y80 I0 J-24.6
G1 Y20
G2 X104 Y-4.6 I-24.6 J0
G1 X20
G2 X-4.6 Y20 I0 J24.6
G1 Y80
G2 X20 Y104.6 I24.6 J0
X22.1 Y103.2 I0 J-2.275
G3 X24.2 Y101.8 I2.1 J0.875
G1 X104
G2 X125.8 Y80 I0 J-21.8
G1 Y20
G2 X104 Y-1.8 I-21.8 J0
G1 X20
G2 X-1.8 Y20 I0 J21.8
G1 Y80
G2 X20 Y101.8 I21.8 J0
G1 X24.2
G2 X24.425 Y101.65 I0 J-0.244
G3 X24.65 Y101.5 I0.225 J0.094
G1 X104
G2 X125.5 Y80 I0 J-21.5
G1 Y20
G2 X104 Y-1.5 I-21.5 J0
G1 X20
G2 X-1.5 Y20 I0 J21.5
G1 Y80
G2 X20 Y101.5 I21.5 J0
G1 X24.65
G3 X24.95 Y101.8 I0 J0.3 F1000
G1 Y102.1
G19 G3 Y102.4 Z-13.7 J0 K0.3
G1 Z15 F3100
G17
G28 G91 Z0
G90
G28 G91 X0 Y0
G90
M5
M30
